src/categories-icons-sprite/categories/svg-cat-sport-accessories.svg

<svg width="32" height="28" viewBox="0 0 32 28" fill="none" xmlns="http://www.w3.org/2000/svg">
<path class="p-73BCFF" d="M0 17.679V28H25.8142V25.0369L0 17.679Z" fill="#A1D1FD"/>
<path class="p-575F64" d="M23.9743 12.018H22.1349V8.2777C22.1349 4.72806 19.2463 1.83949 15.6966 1.83949C12.147 1.83949 9.25843 4.72806 9.25843 8.2777V12.018H7.41895V8.2777C7.41895 3.71323 11.1322 0 15.6966 0C20.2611 0 23.9743 3.71323 23.9743 8.2777V12.018Z" fill="#4D98CB"/>
<path class="p-0095FF" d="M24.8944 9.40137H19.376V25.9568H24.8944C28.6287 25.9568 31.394 22.4802 31.394 17.6791C31.394 12.878 28.6287 9.40137 24.8944 9.40137Z" fill="#5FBEFF"/>
<path class="p-006EFF" d="M31.394 17.679C31.394 22.4801 28.6287 25.9567 24.8944 25.9567H19.376V17.679H31.394Z" fill="#4D98CB"/>
<path class="p-73BCFF" d="M19.3755 9.40137H12.0176V25.9568H19.3755C23.1098 25.9568 25.8137 22.4802 25.8137 17.6791C25.8137 12.878 23.1098 9.40137 19.3755 9.40137Z" fill="#65B3E7"/>
<path class="p-0095FF" d="M25.8137 17.679C25.8137 22.4801 23.1098 25.9567 19.3755 25.9567H12.0176V17.679H25.8137Z" fill="#58ADE5"/>
<path class="p-0095FF" d="M12.0185 9.40137H6.5V25.9568H12.0185C15.7528 25.9568 18.4567 22.4802 18.4567 17.6791C18.4567 12.878 15.7528 9.40137 12.0185 9.40137Z" fill="#5FBEFF"/>
<path class="p-006EFF" d="M18.4567 17.679C18.4567 22.4801 15.7528 25.9567 12.0185 25.9567H6.5V17.679H18.4567Z" fill="#4D98CB"/>
<path class="p-73BCFF" d="M6.49953 9.40137C2.76522 9.40137 0 12.878 0 17.6791C0 22.4802 2.76522 25.9568 6.49953 25.9568C10.2338 25.9568 12.9377 22.4802 12.9377 17.6791C12.9377 12.878 10.2338 9.40137 6.49953 9.40137Z" fill="#65B3E7"/>
<path class="p-0095FF" d="M12.9377 17.679C12.9377 22.4801 10.2338 25.9567 6.49953 25.9567C2.76522 25.9567 0 22.4801 0 17.679H12.9377Z" fill="#58ADE5"/>
<path class="p-0095FF" d="M6.49947 13.0803C4.9359 13.0803 3.74023 15.0487 3.74023 17.679C3.74023 20.3094 4.9359 22.2778 6.49947 22.2778C8.06303 22.2778 9.2587 20.3094 9.2587 17.679C9.2587 15.0487 8.06303 13.0803 6.49947 13.0803Z" fill="#5FBEFF"/>
<path class="p-006EFF" d="M9.2587 17.679C9.2587 20.3093 8.06303 22.2777 6.49947 22.2777C4.9359 22.2777 3.74023 20.3093 3.74023 17.679H9.2587Z" fill="#4D98CB"/>
</svg>

<svg width="32" height="28" fill="none" xmlns="http://www.w3.org/2000/svg"><path class="p-73BCFF" d="M0 17.679V28h25.814v-2.963L0 17.679z" fill="#A1D1FD"/><path class="p-575F64" d="M23.974 12.018h-1.84v-3.74a6.446 6.446 0 00-6.437-6.439 6.446 6.446 0 00-6.439 6.439v3.74H7.42v-3.74C7.419 3.713 11.132 0 15.697 0c4.564 0 8.277 3.713 8.277 8.278v3.74z" fill="#4D98CB"/><path class="p-0095FF" d="M24.894 9.401h-5.518v16.556h5.518c3.735 0 6.5-3.477 6.5-8.278s-2.765-8.278-6.5-8.278z" fill="#5FBEFF"/><path class="p-006EFF" d="M31.394 17.679c0 4.801-2.765 8.278-6.5 8.278h-5.518v-8.278h12.018z" fill="#4D98CB"/><path class="p-73BCFF" d="M19.375 9.401h-7.357v16.556h7.357c3.735 0 6.439-3.477 6.439-8.278s-2.704-8.278-6.439-8.278z" fill="#65B3E7"/><path class="p-0095FF" d="M25.814 17.679c0 4.801-2.704 8.278-6.439 8.278h-7.357v-8.278h13.796z" fill="#58ADE5"/><path class="p-0095FF" d="M12.018 9.401H6.5v16.556h5.518c3.735 0 6.439-3.477 6.439-8.278s-2.704-8.278-6.439-8.278z" fill="#5FBEFF"/><path class="p-006EFF" d="M18.457 17.679c0 4.801-2.704 8.278-6.439 8.278H6.5v-8.278h11.957z" fill="#4D98CB"/><path class="p-73BCFF" d="M6.5 9.401c-3.735 0-6.5 3.477-6.5 8.278s2.765 8.278 6.5 8.278c3.734 0 6.438-3.477 6.438-8.278S10.234 9.401 6.5 9.401z" fill="#65B3E7"/><path class="p-0095FF" d="M12.938 17.679c0 4.801-2.704 8.278-6.438 8.278-3.735 0-6.5-3.477-6.5-8.278h12.938z" fill="#58ADE5"/><path class="p-0095FF" d="M6.5 13.08c-1.564 0-2.76 1.969-2.76 4.599s1.196 4.599 2.76 4.599c1.563 0 2.759-1.969 2.759-4.599s-1.196-4.599-2.76-4.599z" fill="#5FBEFF"/><path class="p-006EFF" d="M9.259 17.679c0 2.63-1.196 4.599-2.76 4.599-1.563 0-2.759-1.969-2.759-4.599H9.26z" fill="#4D98CB"/></svg>
